source/images/logo.svg

<svg xmlns="http://www.w3.org/2000/svg" xmlns:xlink="http://www.w3.org/1999/xlink" preserveAspectRatio="none" width="256" height="256" viewBox="0 0 256 256"><defs><path id="b" stroke="#000" stroke-width="8" stroke-linejoin="round" stroke-linecap="round" fill="none" d="M230.95 7.55q-7.15-5.25-16.65-6.1-9.15-.8-17.7 2.6-8.1 3.15-15.25 9.45-6.55 5.85-11.65 13.8-2.35 3.65-3.35 6.4-.65 1.85-.8 3.6-.2 1.75.2 3.4m-.65 3.2q1.35 1.3 2.9 2.3 4.7 3 11.35 3.35 6.45.3 15.5-2.4Q213 42.1 222.7 32.4q5.85-5.7 8.45-13.35 2-5.9 1.5-11.5m-68.9 35.75q-.55.1-1.55-1.25.8.65 1.55 1.25zm-1.55-1.25q1.05-.35 2.25-.8.05-1.95-.05-3.9-.6-9.95-6.25-19.65-4.75-8.1-11.35-13.15Q141.55.7 132.9.05q-8.45-.65-13.2 5.25-7.45 9.4-3 28.1-11.35-3.75-23.1-2.5-12.25 1.25-21.75 7.65Q62 45.2 57.2 56.4q-4.95 11.5-2.35 22.75 2.65 11.5 12.8 19 5.35 3.95-1.15 7.15-7.9 2-14.3 6-3.1 1.9-5.85 4.25-8.8 7.65-12.5 18.95-2.45 7.45-1.9 14.55.25 3.95 1.5 7.85 3.45 10.9 14.05 19.65 8.65 7.15 21.7 12.5 13.8 5.8 28.55 8.85 5.8 1.2 11.75 2 20.95 2.8 41.7.15 7.15-.9 13.75-2.55.1-.05.25-.05 15.95-4.1 28.85-12.6 20.85-13.8 24.9-34.45 3.75-18.95-9.1-36.05-4.95-6.55-10.8-10.9-9.45-6.95-10.55-11.7 5.65-2.75 8.35-7.1 3.6-5.95 1.35-13.65-2.1-7.25-8-12.1-5-4.1-12.65-6.7-3.45-1.2-9.7-5.75-1.95-1.45-4.1-3.15.6-.15.7-2.05.6-.25 1.3-.55M97.6 198.55q-1 .25-2.4 2.1"/><path id="c" stroke="#000" stroke-width="4" stroke-linejoin="round" stroke-linecap="round" fill="none" d="M165.75 40.7q8.6-3.75 22.7-13.25 16.45-11.15 26.4-13.9M147.2 111.9v.65m-32.7 18.2q.6 2.55 1.1 3.8 1.6 4.65 4.85 5.85 2.8 1.05 6-.25 5.05-1.95 9.05-8.05"/><path id="d" stroke="#000" stroke-width="12" stroke-linejoin="round" stroke-linecap="round" fill="none" d="M201.65 101.75q13.3-.65 20.9-.85 12.55-.25 21.55 3.9 7.4 3.45 9.65 8.75 1.7 3.8.6 8.45-.95 4.2-3.85 7.9-2.5 3-6.5 5.8-2.3 1.65-7.5 4.7M85 71.05q1.25-4.1 4.6-6.15 2.3-1.35 6.75-2.35 3.25-.7 5.2-.65m41.3-2q6-.15 12 1 3.15.85 4.25 1.5 2.25 1.6 2.25 3.65m-111.5 41.5q-2.7-3.5-8-5.1-3.6-1.05-10-1.55-6.05-.5-9.1-.35-5.1.25-8.65 2-8.1 3.9-12.25 15.85-3.4 10.05-.5 17.65 2.4 6.1 8.95 9.8 6 3.4 13.3 3.7m71.6 51.1q-5.65 8.85-7.3 19.4-1.65 10.65 1.05 20.75m76.15-40.75q3.35 2.8 5.8 7.6 1.7 3.35 3.7 9.6 2.45 7.6 3.4 11.8 1.5 6.65 1.35 12.1"/><path id="e" stroke="#000" stroke-width="24" stroke-linejoin="round" stroke-linecap="round" fill="none" d="M147.85 84.55q-1.2 3.8-.65 20.6m-44.85-20.6q-1.2 3.8-.65 20.6"/><path id="f" stroke="#FFF" stroke-width="6" stroke-linejoin="round" stroke-linecap="round" fill="none" d="M149.2 112.45l-1.05 1.35M94.6 79.65l3.4 5.7m43.1-9.6l.5 1.875 2.05 7.725m7.1 25.1l-1.55 2m-44.95-7.2l-.05 6.15"/><g id="a"><path fill="#FFDF7A" d="M163.75 43.3q-.55.1-1.55-1.25 1.05-.35 2.25-.8.05-1.95-.05-3.9-.6-9.95-6.25-19.65-4.75-8.1-11.35-13.15Q141.55.7 132.9.05q-8.45-.65-13.2 5.25-7.45 9.4-3 28.1-11.35-3.75-23.1-2.5-12.25 1.25-21.75 7.65Q62 45.2 57.2 56.4q-4.95 11.5-2.35 22.75 2.65 11.5 12.8 19 5.35 3.95-1.15 7.15-7.9 2-14.3 6-3.1 1.9-5.85 4.25-8.8 7.65-12.5 18.95-2.45 7.45-1.9 14.55.25 3.95 1.5 7.85 3.45 10.9 14.05 19.65 8.65 7.15 21.7 12.5 13.8 5.8 28.55 8.85 5.8 1.2 11.75 2 20.95 2.8 41.7.15 7.15-.9 13.75-2.55.1-.05.25-.05 15.95-4.1 28.85-12.6 20.85-13.8 24.9-34.45 3.75-18.95-9.1-36.05-4.95-6.55-10.8-10.9-9.45-6.95-10.55-11.7 5.65-2.75 8.35-7.1 3.6-5.95 1.35-13.65-2.1-7.25-8-12.1-5-4.1-12.65-6.7-3.45-1.2-9.7-5.75-1.95-1.45-4.1-3.15m22.25 86q-1.75 2.85-7.3 5.05-12.35 4.8-20.95 2.75-2.9-.7-5-2.25-2.4-1.8-3-4.25-.65-2.9 1.2-6.2 4.1-7.35 16.05-9.65 9.4-1.6 14.75 1.6 3.4 2.05 4.75 5.8 1.45 4-.5 7.15m-23.15-38.8q1.85 7.6-.1 13.2-1.15 3.3-3.55 5.7-2.55 2.5-5.75 3.1-2.071.422-4.25-.05l-1.05 1.35 1.05-1.35q-.675-.129-1.35-.35-.35-.1-.65-.2-2.4-.9-4.35-2.6-3.85-3.4-5.95-9.65-1.45-4.4-1.4-8.65.05-4.6 1.95-8.35 1.4-2.8 3.75-4.7.198-.166.4-.35l-.5-1.85.5 1.85q2.285-1.736 4.95-2.15 2.9-.45 5.95.75 2.8 1.15 5 3.45 3.7 4.05 5.35 10.85M85 71.05q1.25-4.1 4.6-6.15 2.3-1.35 6.75-2.35 3.25-.7 5.2-.65-1.95-.05-5.2.65-4.45 1-6.75 2.35-3.35 2.05-4.6 6.15M89.75 91q.05-4.6 1.95-8.35 1.4-2.8 3.75-4.7 2.45-2.05 5.35-2.5 2.9-.45 5.95.75 2.8 1.15 5 3.45 3.7 4.05 5.35 10.85 1.85 7.6-.1 13.2-1.15 3.3-3.55 5.7-2.55 2.5-5.75 3.1-2.7.55-5.6-.4-2.75-.85-5-2.8-3.85-3.4-5.95-9.65-1.45-4.4-1.4-8.65m53.1-31.1q6-.15 12 1 3.15.85 4.25 1.5 2.25 1.6 2.25 3.65 0-2.05-2.25-3.65-1.1-.65-4.25-1.5-6-1.15-12-1m-70.6 64.2q3.4-2.7 4.8-3.65 2.8-1.9 5.3-2.85 3-1.15 5.95-1.05 3.25.05 5.65 1.65.65.4 1.85 1.4 1.15.95 1.8 1.35.25.15 3.75 1.7 2.25.95 3.1 2.3 1.2 1.85.25 4.3-.9 2.3-2.95 3.55-1.7 1.05-4.3 1.5-.75.15-4.65.6-3.7.6-5.55.85-3.25.45-5.55.45-6.55.1-10.25-3.45-1.2-1.1-1.75-2.4-.65-1.5-.25-2.85.5-1.5 2.8-3.4m54.2 16.05q5.05-1.95 9.05-8.05-4 6.1-9.05 8.05-3.2 1.3-6 .25-3.25-1.2-4.85-5.85-.5-1.25-1.1-3.8.6 2.55 1.1 3.8 1.6 4.65 4.85 5.85 2.8 1.05 6-.25z"/><path fill="#FFA4A2" d="M77.05 120.45q-1.4.95-4.8 3.65-2.3 1.9-2.8 3.4-.4 1.35.25 2.85.55 1.3 1.75 2.4 3.7 3.55 10.25 3.45 2.3 0 5.55-.45 1.85-.25 5.55-.85 3.9-.45 4.65-.6 2.6-.45 4.3-1.5 2.05-1.25 2.95-3.55.95-2.45-.25-4.3-.85-1.35-3.1-2.3-3.5-1.55-3.75-1.7-.65-.4-1.8-1.35-1.2-1-1.85-1.4-2.4-1.6-5.65-1.65-2.95-.1-5.95 1.05-2.5.95-5.3 2.85m101.65 13.9q5.55-2.2 7.3-5.05 1.95-3.15.5-7.15-1.35-3.75-4.75-5.8-5.35-3.2-14.75-1.6-11.95 2.3-16.05 9.65-1.85 3.3-1.2 6.2.6 2.45 3 4.25 2.1 1.55 5 2.25 8.6 2.05 20.95-2.75z"/><path fill="#FFF" d="M91.7 82.65Q89.8 86.4 89.75 91q-.05 4.25 1.4 8.65 2.1 6.25 5.95 9.65 2.25 1.95 5 2.8 2.9.95 5.6.4 3.2-.6 5.75-3.1 2.4-2.4 3.55-5.7 1.95-5.6.1-13.2-1.65-6.8-5.35-10.85-2.2-2.3-5-3.45-3.05-1.2-5.95-.75-2.9.45-5.35 2.5-2.35 1.9-3.75 4.7m2.9-3l3.4 5.7-3.4-5.7m9.65 25.6l-.05 6.15.05-6.15m-1.9-20.7q-1.2 3.8-.65 20.6-.55-16.8.65-20.6m60.4 19.15q1.95-5.6.1-13.2-1.65-6.8-5.35-10.85-2.2-2.3-5-3.45-3.05-1.2-5.95-.75-2.665.414-4.95 2.15l2.05 7.75-2.05-7.75q-.202.184-.4.35-2.35 1.9-3.75 4.7-1.9 3.75-1.95 8.35-.05 4.25 1.4 8.65 2.1 6.25 5.95 9.65 1.95 1.7 4.35 2.6.3.1.65.2.675.221 1.35.35l1.55-2-1.55 2q2.179.472 4.25.05 3.2-.6 5.75-3.1 2.4-2.4 3.55-5.7m-14.9-19.15q-1.2 3.8-.65 20.6-.55-16.8.65-20.6z"/><path fill="#9C0" d="M232.65 7.55h-1.7q-7.15-5.25-16.65-6.1-9.15-.8-17.7 2.6-8.1 3.15-15.25 9.45-6.55 5.85-11.65 13.8-2.35 3.65-3.35 6.4-.65 1.85-.8 3.6-.2 1.75.2 3.4 8.6-3.75 22.7-13.25 16.45-11.15 26.4-13.9-9.95 2.75-26.4 13.9-14.1 9.5-22.7 13.25l-.65 3.2q1.35 1.3 2.9 2.3 4.7 3 11.35 3.35 6.45.3 15.5-2.4Q213 42.1 222.7 32.4q5.85-5.7 8.45-13.35 2-5.9 1.5-11.5z"/></g></defs><g transform="translate(13.55 22.25) scale(.89276)"><use xlink:href="#a"/><use xlink:href="#b"/><use xlink:href="#c"/><use xlink:href="#d"/><use xlink:href="#e"/><use xlink:href="#f"/></g></svg>

<svg xmlns="http://www.w3.org/2000/svg" version="1.1" xmlns:xlink="http://www.w3.org/1999/xlink" preserveAspectRatio="none" x="0px" y="0px" width="256px" height="256px" viewBox="0 0 256 256">
<defs>
<g id="___1_0_Layer0_0_FILL">
<path fill="#FFDF7A" stroke="none" d="
M 163.75 43.3
Q 163.2 43.4 162.2 42.05 163.25 41.7 164.45 41.25 164.5 39.3 164.4 37.35 163.8 27.4 158.15 17.7 153.4 9.6 146.8 4.55 141.55 0.7 132.9 0.05 124.45 -0.6 119.7 5.3 112.25 14.7 116.7 33.4 105.35 29.65 93.6 30.9 81.35 32.15 71.85 38.55 62 45.2 57.2 56.4 52.25 67.9 54.85 79.15 57.5 90.65 67.65 98.15 73 102.1 66.5 105.3 58.6 107.3 52.2 111.3 49.1 113.2 46.35 115.55 37.55 123.2 33.85 134.5 31.4 141.95 31.95 149.05 32.2 153 33.45 156.9 36.9 167.8 47.5 176.55 56.15 183.7 69.2 189.05 83 194.85 97.75 197.9 103.55 199.1 109.5 199.9 130.45 202.7 151.2 200.05 158.35 199.15 164.95 197.5 165.05 197.45 165.2 197.45 181.15 193.35 194.05 184.85 214.9 171.05 218.95 150.4 222.7 131.45 209.85 114.35 204.9 107.8 199.05 103.45 189.6 96.5 188.5 91.75 194.15 89 196.85 84.65 200.45 78.7 198.2 71 196.1 63.75 190.2 58.9 185.2 54.8 177.55 52.2 174.1 51 167.85 46.45 165.9 45 163.75 43.3
M 186 129.3
Q 184.25 132.15 178.7 134.35 166.35 139.15 157.75 137.1 154.85 136.4 152.75 134.85 150.35 133.05 149.75 130.6 149.1 127.7 150.95 124.4 155.05 117.05 167 114.75 176.4 113.15 181.75 116.35 185.15 118.4 186.5 122.15 187.95 126.15 186 129.3
M 162.85 90.5
Q 164.7 98.1 162.75 103.7 161.6 107 159.2 109.4 156.65 111.9 153.45 112.5 151.378515625 112.921875 149.2 112.45
L 148.15 113.8 149.2 112.45
Q 148.5251953125 112.32109375 147.85 112.1 147.5 112 147.2 111.9 147.2 112.2 147.2 112.55 147.2 112.2 147.2 111.9 144.8 111 142.85 109.3 139 105.9 136.9 99.65 135.45 95.25 135.5 91 135.55 86.4 137.45 82.65 138.85 79.85 141.2 77.95 141.398046875 77.7841796875 141.6 77.6
L 141.1 75.75 141.6 77.6
Q 143.8845703125 75.863671875 146.55 75.45 149.45 75 152.5 76.2 155.3 77.35 157.5 79.65 161.2 83.7 162.85 90.5
M 85 71.05
Q 86.25 66.95 89.6 64.9 91.9 63.55 96.35 62.55 99.6 61.85 101.55 61.9 99.6 61.85 96.35 62.55 91.9 63.55 89.6 64.9 86.25 66.95 85 71.05
M 89.75 91
Q 89.8 86.4 91.7 82.65 93.1 79.85 95.45 77.95 97.9 75.9 100.8 75.45 103.7 75 106.75 76.2 109.55 77.35 111.75 79.65 115.45 83.7 117.1 90.5 118.95 98.1 117 103.7 115.85 107 113.45 109.4 110.9 111.9 107.7 112.5 105 113.05 102.1 112.1 99.35 111.25 97.1 109.3 93.25 105.9 91.15 99.65 89.7 95.25 89.75 91
M 142.85 59.9
Q 148.85 59.75 154.85 60.9 158 61.75 159.1 62.4 161.35 64 161.35 66.05 161.35 64 159.1 62.4 158 61.75 154.85 60.9 148.85 59.75 142.85 59.9
M 72.25 124.1
Q 75.65 121.4 77.05 120.45 79.85 118.55 82.35 117.6 85.35 116.45 88.3 116.55 91.55 116.6 93.95 118.2 94.6 118.6 95.8 119.6 96.95 120.55 97.6 120.95 97.85 121.1 101.35 122.65 103.6 123.6 104.45 124.95 105.65 126.8 104.7 129.25 103.8 131.55 101.75 132.8 100.05 133.85 97.45 134.3 96.7 134.45 92.8 134.9 89.1 135.5 87.25 135.75 84 136.2 81.7 136.2 75.15 136.3 71.45 132.75 70.25 131.65 69.7 130.35 69.05 128.85 69.45 127.5 69.95 126 72.25 124.1
M 126.45 140.15
Q 131.5 138.2 135.5 132.1 131.5 138.2 126.45 140.15 123.25 141.45 120.45 140.4 117.2 139.2 115.6 134.55 115.1 133.3 114.5 130.75 115.1 133.3 115.6 134.55 117.2 139.2 120.45 140.4 123.25 141.45 126.45 140.15 Z"/>

<path fill="#FFA4A2" stroke="none" d="
M 77.05 120.45
Q 75.65 121.4 72.25 124.1 69.95 126 69.45 127.5 69.05 128.85 69.7 130.35 70.25 131.65 71.45 132.75 75.15 136.3 81.7 136.2 84 136.2 87.25 135.75 89.1 135.5 92.8 134.9 96.7 134.45 97.45 134.3 100.05 133.85 101.75 132.8 103.8 131.55 104.7 129.25 105.65 126.8 104.45 124.95 103.6 123.6 101.35 122.65 97.85 121.1 97.6 120.95 96.95 120.55 95.8 119.6 94.6 118.6 93.95 118.2 91.55 116.6 88.3 116.55 85.35 116.45 82.35 117.6 79.85 118.55 77.05 120.45
M 178.7 134.35
Q 184.25 132.15 186 129.3 187.95 126.15 186.5 122.15 185.15 118.4 181.75 116.35 176.4 113.15 167 114.75 155.05 117.05 150.95 124.4 149.1 127.7 149.75 130.6 150.35 133.05 152.75 134.85 154.85 136.4 157.75 137.1 166.35 139.15 178.7 134.35 Z"/>

<path fill="#FFFFFF" stroke="none" d="
M 91.7 82.65
Q 89.8 86.4 89.75 91 89.7 95.25 91.15 99.65 93.25 105.9 97.1 109.3 99.35 111.25 102.1 112.1 105 113.05 107.7 112.5 110.9 111.9 113.45 109.4 115.85 107 117 103.7 118.95 98.1 117.1 90.5 115.45 83.7 111.75 79.65 109.55 77.35 106.75 76.2 103.7 75 100.8 75.45 97.9 75.9 95.45 77.95 93.1 79.85 91.7 82.65
M 94.6 79.65
L 98 85.35 94.6 79.65
M 104.25 105.25
L 104.2 111.4 104.25 105.25
M 102.35 84.55
Q 101.15 88.35 101.7 105.15 101.15 88.35 102.35 84.55
M 162.75 103.7
Q 164.7 98.1 162.85 90.5 161.2 83.7 157.5 79.65 155.3 77.35 152.5 76.2 149.45 75 146.55 75.45 143.8845703125 75.863671875 141.6 77.6
L 143.65 85.35 141.6 77.6
Q 141.398046875 77.7841796875 141.2 77.95 138.85 79.85 137.45 82.65 135.55 86.4 135.5 91 135.45 95.25 136.9 99.65 139 105.9 142.85 109.3 144.8 111 147.2 111.9 147.5 112 147.85 112.1 148.5251953125 112.32109375 149.2 112.45
L 150.75 110.45 149.2 112.45
Q 151.378515625 112.921875 153.45 112.5 156.65 111.9 159.2 109.4 161.6 107 162.75 103.7
M 147.85 84.55
Q 146.65 88.35 147.2 105.15 146.65 88.35 147.85 84.55 Z"/>

<path fill="#99CC00" stroke="none" d="
M 232.65 7.55
L 230.95 7.55
Q 223.8 2.3 214.3 1.45 205.15 0.65 196.6 4.05 188.5 7.2 181.35 13.5 174.8 19.35 169.7 27.3 167.35 30.95 166.35 33.7 165.7 35.55 165.55 37.3 165.35 39.05 165.75 40.7 174.35 36.95 188.45 27.45 204.9 16.3 214.85 13.55 204.9 16.3 188.45 27.45 174.35 36.95 165.75 40.7
L 165.1 43.9
Q 166.45 45.2 168 46.2 172.7 49.2 179.35 49.55 185.8 49.85 194.85 47.15 213 42.1 222.7 32.4 228.55 26.7 231.15 19.05 233.15 13.15 232.65 7.55 Z"/>
</g>

<path id="___1_0_Layer0_0_1_STROKES" stroke="#000000" stroke-width="8" stroke-linejoin="round" stroke-linecap="round" fill="none" d="
M 230.95 7.55
Q 223.8 2.3 214.3 1.45 205.15 0.65 196.6 4.05 188.5 7.2 181.35 13.5 174.8 19.35 169.7 27.3 167.35 30.95 166.35 33.7 165.7 35.55 165.55 37.3 165.35 39.05 165.75 40.7
M 165.1 43.9
Q 166.45 45.2 168 46.2 172.7 49.2 179.35 49.55 185.8 49.85 194.85 47.15 213 42.1 222.7 32.4 228.55 26.7 231.15 19.05 233.15 13.15 232.65 7.55
M 163.75 43.3
Q 163.2 43.4 162.2 42.05 163 42.7 163.75 43.3 Z
M 162.2 42.05
Q 163.25 41.7 164.45 41.25 164.5 39.3 164.4 37.35 163.8 27.4 158.15 17.7 153.4 9.6 146.8 4.55 141.55 0.7 132.9 0.05 124.45 -0.6 119.7 5.3 112.25 14.7 116.7 33.4 105.35 29.65 93.6 30.9 81.35 32.15 71.85 38.55 62 45.2 57.2 56.4 52.25 67.9 54.85 79.15 57.5 90.65 67.65 98.15 73 102.1 66.5 105.3 58.6 107.3 52.2 111.3 49.1 113.2 46.35 115.55 37.55 123.2 33.85 134.5 31.4 141.95 31.95 149.05 32.2 153 33.45 156.9 36.9 167.8 47.5 176.55 56.15 183.7 69.2 189.05 83 194.85 97.75 197.9 103.55 199.1 109.5 199.9 130.45 202.7 151.2 200.05 158.35 199.15 164.95 197.5 165.05 197.45 165.2 197.45 181.15 193.35 194.05 184.85 214.9 171.05 218.95 150.4 222.7 131.45 209.85 114.35 204.9 107.8 199.05 103.45 189.6 96.5 188.5 91.75 194.15 89 196.85 84.65 200.45 78.7 198.2 71 196.1 63.75 190.2 58.9 185.2 54.8 177.55 52.2 174.1 51 167.85 46.45 165.9 45 163.75 43.3 164.35 43.15 164.45 41.25 165.05 41 165.75 40.7
M 97.6 198.55
Q 96.6 198.8 95.2 200.65"/>

<path id="___1_0_Layer0_0_2_STROKES" stroke="#000000" stroke-width="4" stroke-linejoin="round" stroke-linecap="round" fill="none" d="
M 165.75 40.7
Q 174.35 36.95 188.45 27.45 204.9 16.3 214.85 13.55
M 147.2 111.9
Q 147.2 112.2 147.2 112.55
M 114.5 130.75
Q 115.1 133.3 115.6 134.55 117.2 139.2 120.45 140.4 123.25 141.45 126.45 140.15 131.5 138.2 135.5 132.1"/>

<path id="___1_0_Layer0_0_3_STROKES" stroke="#000000" stroke-width="12" stroke-linejoin="round" stroke-linecap="round" fill="none" d="
M 201.65 101.75
Q 214.95 101.1 222.55 100.9 235.1 100.65 244.1 104.8 251.5 108.25 253.75 113.55 255.45 117.35 254.35 122 253.4 126.2 250.5 129.9 248 132.9 244 135.7 241.7 137.35 236.5 140.4
M 85 71.05
Q 86.25 66.95 89.6 64.9 91.9 63.55 96.35 62.55 99.6 61.85 101.55 61.9
M 142.85 59.9
Q 148.85 59.75 154.85 60.9 158 61.75 159.1 62.4 161.35 64 161.35 66.05
M 49.85 107.55
Q 47.15 104.05 41.85 102.45 38.25 101.4 31.85 100.9 25.8 100.4 22.75 100.55 17.65 100.8 14.1 102.55 6 106.45 1.85 118.4 -1.55 128.45 1.35 136.05 3.75 142.15 10.3 145.85 16.3 149.25 23.6 149.55
M 95.2 200.65
Q 89.55 209.5 87.9 220.05 86.25 230.7 88.95 240.8
M 165.1 200.05
Q 168.45 202.85 170.9 207.65 172.6 211 174.6 217.25 177.05 224.85 178 229.05 179.5 235.7 179.35 241.15"/>

<path id="___1_0_Layer0_0_4_STROKES" stroke="#000000" stroke-width="24" stroke-linejoin="round" stroke-linecap="round" fill="none" d="
M 147.85 84.55
Q 146.65 88.35 147.2 105.15
M 102.35 84.55
Q 101.15 88.35 101.7 105.15"/>

<path id="___1_0_Layer0_0_5_STROKES" stroke="#FFFFFF" stroke-width="6" stroke-linejoin="round" stroke-linecap="round" fill="none" d="
M 149.2 112.45
L 148.15 113.8
M 94.6 79.65
L 98 85.35
M 141.1 75.75
L 141.6 77.625 143.65 85.35
M 150.75 110.45
L 149.2 112.45
M 104.25 105.25
L 104.2 111.4"/>
</defs>

<g id="___1">
<g transform="matrix( 0.89276123046875, 0, 0, 0.89276123046875, 13.55,22.25) ">
<g transform="matrix( 1, 0, 0, 1, 0,0) ">
<use xlink:href="#___1_0_Layer0_0_FILL"/>

<use xlink:href="#___1_0_Layer0_0_1_STROKES"/>

<use xlink:href="#___1_0_Layer0_0_2_STROKES"/>

<use xlink:href="#___1_0_Layer0_0_3_STROKES"/>

<use xlink:href="#___1_0_Layer0_0_4_STROKES"/>

<use xlink:href="#___1_0_Layer0_0_5_STROKES"/>
</g>
</g>
</g>

<g id="Layer_1"/>
</svg>
